**kern	**kern
*staff1	*staff2
*clefG2	*clefF4
*k[f#c#]	*k[f#c#]
*M2/4	*M2/4
*D:	*D:
=	=
(16aaLL	(16f#LL
16bb	16a
16aa	16d
16ggJJ	16aJJ
16ff#LL	16dLL
16gg	16a
16aa	16f#
16gg#JJ	16aJJ
=18	=18
16aaLL	16f#LL
16bb	16a
16aa	16d
16ggJJ	16aJJ
16ff#LL	16dLL
16fff#	16dd
16eee	16cc#
16dddJJ	16bJJ
=19	=19
16ccc#LL	16aLL
16ccc	16dd
16bb	16g
16dddJJ	16ddJJ
16aaLL	16f#LL
16gg#	16a
16gg	16e
16aaJJ	16aJJ
=20	=20
16ggLL	16dLL
16ff#	16a
16aa	16e
16ggJJ	16aJJ
16aaLL	16eLL
16gg	16a
16aa	16e#
16gg#JJ	16aJJ
=21	=21
16aaLL	16f#LL
16bb	16a
16aa	16d
16ggJJ	16aJJ
16ff#LL	16dLL
16gg	16a
16aa	16f#
16gg#JJ	16aJJ
=22	=22
16aaLL	16f#LL
16bb	16a
16aa	16d
16ggJJ	16aJJ
16ff#LL	16dLL
16fff#	16dd
16eee	16cc#
16dddJJ	16bJJ
=23	=23
16ccc#LL	16aLL
16ccc	16dd
16bb	16g
16dddJJ	16ddJJ
16aaLL	16f#LL
16gg#	16dd
16aa	16f#
16aa#JJ	16eeJJ
=24	=24
16bbLL	16bLL
16ccc#	16dd
16bb	16f#
16aa#JJ	16bJJ
16bbLL	16dLL
16aa#	16f#
16bb	16d
16ccc#JJ)	16c#JJ)
=25:|!|:	=25:|!|:
*-	*-
